resources/icons/custom/hc_rect_channel.svg

<?xml version="1.0" encoding="UTF-8" standalone="no"?>
<svg
   width="24"
   height="24"
   viewBox="0 0 24 24"
   fill="none"
   stroke="currentColor"
   stroke-width="1.5"
   stroke-linecap="round"
   stroke-linejoin="round"
   version="1.1"
   id="svg4"
   sodipodi:docname="hc_rect_channel.svg"
   inkscape:version="1.2.1 (9c6d41e410, 2022-07-14)"
   xml:space="preserve"
   xmlns:inkscape="http://www.inkscape.org/namespaces/inkscape"
   xmlns:sodipodi="http://sodipodi.sourceforge.net/DTD/sodipodi-0.dtd"
   xmlns="http://www.w3.org/2000/svg"
   xmlns:svg="http://www.w3.org/2000/svg"><defs
     id="defs8"><rect
       x="-4.4583682"
       y="-11.721194"
       width="35.559082"
       height="33.617534"
       id="rect13873" /><rect
       x="-4.4583683"
       y="-11.721194"
       width="35.559082"
       height="33.617535"
       id="rect13873-6" /></defs><sodipodi:namedview
     id="namedview6"
     pagecolor="#505050"
     bordercolor="#ffffff"
     borderopacity="1"
     inkscape:showpageshadow="0"
     inkscape:pageopacity="0"
     inkscape:pagecheckerboard="1"
     inkscape:deskcolor="#505050"
     showgrid="false"
     inkscape:zoom="32"
     inkscape:cx="10.875"
     inkscape:cy="9.21875"
     inkscape:window-width="2520"
     inkscape:window-height="1574"
     inkscape:window-x="-11"
     inkscape:window-y="-11"
     inkscape:window-maximized="1"
     inkscape:current-layer="g26537"
     showguides="false" /><g
     id="g26537"
     transform="translate(0,0.95225255)"><path
       style="fill:none;fill-opacity:1;stroke-width:1;stroke-linecap:round;stroke-dasharray:none"
       d="m 22.5,4.5 v 8.768621 m -3.102824,0 H 11.5 V 4.5"
       id="path2950-5"
       sodipodi:nodetypes="ccccc" /><path
       style="fill:none;fill-opacity:1;stroke:#000000;stroke-width:1;stroke-linecap:round;stroke-dasharray:none;stroke-opacity:1"
       d="M 1.499999,17.595495 11.5,13.268621"
       id="path8065"
       sodipodi:nodetypes="cc" /><path
       style="fill:#000000;fill-opacity:1;stroke:#000000;stroke-width:1;stroke-linecap:round;stroke-dasharray:none;stroke-opacity:1"
       d="m 1.499999,4.4889172 0,12.8051608 L 11.585502,13.813106 11.5,4.5 Z"
       id="path9535-1"
       sodipodi:nodetypes="ccccc" /><path
       style="fill:none;fill-opacity:1;stroke:#000000;stroke-width:1;stroke-linecap:round;stroke-dasharray:none;stroke-opacity:1"
       d="M 19.397176,17.595495 22.5,13.268621"
       id="path8067"
       sodipodi:nodetypes="cc" /><g
       id="g21384"><path
         style="fill:#3187ca;fill-opacity:1;stroke:none;stroke-linecap:round"
         d="M 2.0745239,11.044749 12.008233,8.9663418 H 22.5 l -3.102823,2.0784072 z"
         id="path14433"
         sodipodi:nodetypes="ccccc" /><rect
         style="fill:#7cb4df;fill-opacity:1;stroke:none;stroke-width:1.5;stroke-linecap:round"
         id="rect11925"
         width="16.836519"
         height="6.5477486"
         x="2.0745239"
         y="11.047748" /></g><path
       style="fill:none;fill-opacity:1;stroke-width:0.999998;stroke-linecap:round;stroke-dasharray:none"
       d="M 1.499999,4.5 V 17.595495 H 19.397176 V 4.5"
       id="path2950"
       sodipodi:nodetypes="cccc" /><path
       style="fill:#7cb4df;stroke-width:1;stroke-linecap:round;stroke-dasharray:none"
       d="M 19.397176,4.4999999 H 22.5"
       id="path21017" /><path
       style="fill:#000000;fill-opacity:1;stroke:none;stroke-width:1;stroke-linecap:round;stroke-dasharray:none;stroke-opacity:1"
       d="M 19.397176,4.5 V 16.99266 L 22.5,13.268621 V 4.5 Z"
       id="path9535" /></g></svg>

<?xml version="1.0" encoding="UTF-8"?>
<svg width="24" height="24" fill="none" stroke="currentColor" stroke-linecap="round" stroke-linejoin="round" stroke-width="1.5" version="1.1" viewBox="0 0 24 24" xml:space="preserve"
  xmlns="http://www.w3.org/2000/svg">
  <g transform="translate(0 .95225)">
    <path d="m22.5 4.5v8.7686m-3.1028 0h-7.8972v-8.7686" fill="none" stroke-linecap="round" stroke-width="1"/>
    <g stroke="#000" stroke-linecap="round" stroke-width="1">
      <path d="m1.5 17.595 10-4.3269" fill="none"/>
      <path d="m1.5 4.4889v12.805l10.086-3.481-0.085502-9.3131z" fill="#000"/>
      <path d="m19.397 17.595 3.1028-4.3269" fill="none"/>
    </g>
    <g stroke="none">
      <path d="m2.0745 11.045 9.9337-2.0784h10.492l-3.1028 2.0784z" fill="#3187ca"/>
      <rect x="2.0745" y="11.048" width="16.837" height="6.5477" fill="#7cb4df"/>
    </g>
    <path d="m1.5 4.5v13.095h17.897v-13.095" fill="none" stroke-linecap="round" stroke-width="1"/>
    <path d="m19.397 4.5h3.1028" fill="#7cb4df" stroke-linecap="round" stroke-width="1"/>
    <path d="m19.397 4.5v12.493l3.1028-3.724v-8.7686z" fill="#000" stroke="none"/>
  </g>
</svg>
